X:350
T: ET GIENG EN PATF[ERK2E
N: E0977
O: Europa, Mitteleuropa, Deutschland, Niederrhein
R: Tanz - Lied, Reigen
M: 2/4
L: 1/16
K: C
G,2 | C2E2D2C2 | B,2A,2G,4 |
A,3G,A,2B,2 | C4z2
G,2 | C2E2D2C2 | B,2A,2G,4 |
A,3G,A,2B,2 | C4z2
C2 | D2D2D2E2 | F2E2D4 |
E2C2CB,C2 | D2B,2G,4 |
A,3G,A,2B,2 | C4z2

@@@ Tune index: 4663
